X:1
T:The Innocent Hare (Sportsmen Arouse)
M:9/8
L:1/8
K:F
 C| F2 F G2 G| AGA B2 B| c2 c FGA|
M:9/8
G-F G F3- F2 C| F2 F G2 G AGA| B2 B c2 c FGA|
M:9/8
G-F G F3- FB B| BdB GGF E2 D| C2 B/2B/2 BdB GGF| E2 F G3 FFF| GGG AGA B2 B/2B/2|\
 ccc FGA GFG| F2||
